static/assets/images/tokens/ethx.svg

<svg width="256" height="256" viewBox="0 0 256 256" fill="none" xmlns="http://www.w3.org/2000/svg">
<path fill-rule="evenodd" clip-rule="evenodd" d="M256 128C256 198.692 198.692 256 128 256C57.3075 256 0 198.692 0 128C0 57.3075 57.3075 0 128 0C198.692 0 256 57.3075 256 128Z" fill="black"/>
<path d="M129.011 51.9699H129.014L129.011 156.998L175.681 129.41L129.011 51.9699Z" fill="#B7B7B7"/>
<path d="M129.014 51.9699L82.3425 129.41L129.014 156.998V51.9699Z" fill="white"/>
<path d="M129.042 165.831H129.014V204.025H129.042L175.741 138.258L129.042 165.831Z" fill="#939090"/>
<path d="M129.014 204.025V165.831L82.3425 138.258L129.014 204.025Z" fill="white"/>
<path d="M129.03 156.996L175.701 129.408L129.03 108.194V156.996Z" fill="#939090"/>
<path d="M82.3425 129.408L129.014 156.996V108.194L82.3425 129.408Z" fill="#B1B1B1"/>
<path fill-rule="evenodd" clip-rule="evenodd" d="M180.584 31.4314L160.579 51.4365C180.546 59.9258 196.521 75.982 204.903 96.0056L225.03 75.8781L180.584 31.4314ZM31.2002 75.6471L75.6469 31.2004L95.7457 51.2993C75.7352 59.7065 59.698 75.7001 51.2336 95.6805L31.2002 75.6471Z" fill="white"/>
<path d="M95.8444 205.064C75.8208 196.682 59.7645 180.707 51.2753 160.74L31.4312 180.584L75.8779 225.031L95.8444 205.064Z" fill="white"/>
<path d="M204.862 160.415C196.454 180.426 180.461 196.463 160.48 204.927L180.353 224.8L224.799 180.353L204.862 160.415Z" fill="white"/>
</svg>

<svg xmlns="http://www.w3.org/2000/svg" fill="none" viewBox="0 0 256 256"><path fill="#000" fill-rule="evenodd" d="M256 128c0 70.692-57.308 128-128 128S0 198.692 0 128 57.308 0 128 0s128 57.308 128 128" clip-rule="evenodd"/><path fill="#B7B7B7" d="M129.011 51.97h.003l-.003 105.028 46.67-27.588z"/><path fill="#fff" d="m129.014 51.97-46.672 77.44 46.672 27.588z"/><path fill="#939090" d="M129.042 165.831h-.028v38.194h.028l46.699-65.767z"/><path fill="#fff" d="M129.014 204.025v-38.194l-46.672-27.573z"/><path fill="#939090" d="m129.03 156.996 46.671-27.588-46.671-21.214z"/><path fill="#B1B1B1" d="m82.343 129.408 46.671 27.588v-48.802z"/><path fill="#fff" fill-rule="evenodd" d="m180.584 31.431-20.005 20.006c19.967 8.489 35.942 24.545 44.324 44.569l20.127-20.128zM31.2 75.647 75.647 31.2l20.099 20.1c-20.01 8.407-36.048 24.4-44.512 44.38z" clip-rule="evenodd"/><path fill="#fff" d="M95.844 205.064c-20.023-8.382-36.08-24.357-44.569-44.324l-19.844 19.844 44.447 44.447zm109.018-44.649c-8.408 20.011-24.401 36.048-44.382 44.512l19.873 19.873 44.446-44.447z"/></svg>
